<?xml version="1.0" encoding="UTF-8"?>
<map version="1.10" tiledversion="1.11.2" orientation="orthogonal" renderorder="left-down" width="100" height="54" tilewidth="128" tileheight="128" infinite="0" nextlayerid="16" nextobjectid="220">
 <tileset firstgid="1" name="test" tilewidth="128" tileheight="128" tilecount="0" columns="4"/>
 <objectgroup id="1" name="wall">
  <object id="190" x="3194.07" y="6004.11">
   <polyline points="24,0 -1763.91,-4215.46 -1745.88,-4526.81 -1438.54,-4770.08 -578.614,-4986.29 1718.82,-5088.4 3488.7,-5071.38 408.434,-4050.3 -410.47,-3573.79 -588.65,-3254.45 -558.614,-2956.13 -252.289,-2713.87 697.741,-2501.66 2909.07,-2455.62 4390.66,-2773.94 5547.89,-3403.61 6143.52,-4169.43 6279.67,-4475.75 6674.06,-3182.38 6661.05,-2538.75 6568.97,-2382.53 6308.68,-2127.26 5735.09,-2008.13 5037.35,-2059.19 4203.46,-2110.24 3420.63,-2059.19 2467.62,-1871.99 1633.73,-1446.54 1055.12,-937.012 37.452,11.711"/>
  </object>
  <object id="191" x="2683.53" y="6769.93">
   <polyline points="0,0 -328.361,-309.307 -1148.72,-2046.09 -2246.46,-4815.09 -2350.53,-5108.47 -2213.37,-5606.94 -1693.81,-6103.52 -884.939,-6432.83 340.361,-6568.97 1889.01,-6620.03 3726.96,-6671.08 4816.11,-6603.01 5530.87,-6329.7 5650,-6007.38 5542.87,-5673.05 5028.33,-5336.69 3989.21,-4918.22 2520.71,-4478.81 1548.64,-4186.44 1420.43,-4068.34 2671.84,-3982.23 4127.39,-4140.41 4948.26,-4462.73 5564.91,-5037.35 6041.41,-6041.41 6375.81,-6381.77 6994.42,-6449.85 7266.71,-6313.7 7533.98,-6071.45 7675.15,-5667.02 7981.47,-4816.11 8197.69,-4151.39 8252.74,-3462.67 8100.6,-2893.07 7568.02,-2289.44 6801.19,-2009.15 5786.14,-2008.13 4356.62,-2093.22 3182.38,-1803.91 2603.76,-1463.55 2059.19,-867.921 1429.52,-238.253 867.921,68.0723 13.379,28.0723"/>
  </object>
 </objectgroup>
 <objectgroup id="14" name="checkpoints">
  <object id="210" x="256" y="1664">
   <polyline points="0,0 1280,0"/>
  </object>
  <object id="211" x="6530.3" y="948.485">
   <polyline points="0,0 -3.0303,-869.697"/>
  </object>
  <object id="212" x="6624.24" y="945.455">
   <polyline points="0,0 1743.76,-33.4545"/>
  </object>
  <object id="213" x="4176" y="2672">
   <polyline points="0,0 -1616,24"/>
  </object>
  <object id="214" x="5392" y="2672">
   <polyline points="0,0 -48,912"/>
  </object>
  <object id="215" x="9472" y="1664">
   <polyline points="0,0 0,-1408"/>
  </object>
  <object id="216" x="9856" y="2816">
   <polyline points="0,0 1064,8"/>
  </object>
  <object id="217" x="7040" y="4736">
   <polyline points="0,0 0,-896"/>
  </object>
  <object id="218" x="3216" y="5920">
   <polyline points="0,0 -16,928"/>
  </object>
 </objectgroup>
 <imagelayer id="12" name="bg">
  <image source="mapa.png"/>
  <properties>
   <property name="pijja" value="pijota"/>
  </properties>
 </imagelayer>
 <objectgroup id="2" name="player">
  <object id="166" x="652" y="2000" width="128" height="256" rotation="-22"/>
 </objectgroup>
 <objectgroup id="15" name="player2">
  <object id="219" x="916" y="1868" width="128" height="256" rotation="-22"/>
 </objectgroup>
</map>
